assets/images/grey-bottom.svg

<svg fill="none" height="853" viewBox="0 0 3025 853" width="3025" xmlns="http://www.w3.org/2000/svg"><path d="m355.28 134.393c-192.97-45.3896-355.871714-14.599-355.871714-14.599l-.194699 683.617c60.993713 3.369 364.036413-143.954 598.897413-152.956 149.094-5.715 306.315 7.736 447.979 56.327 26.52 9.09 142.54 54.009 168.87 66.387 13.74 6.447 71.37 18.123 126.21 29.232 50.28 10.186 98.21 19.896 107.79 24.661 35.65 17.71 59.94 17.522 112.31 17.117 30.85-.238 71.43-.552 129.81 2.67 3.48.191 8.04.663 13.86 1.264 32.5 3.356 104.29 10.768 246.15-3.797 63.59-6.53 224.75-26.254 314.16-78.916 146.85-86.5 546.25 92.808 761.94 37.547l-.43-683.168s-296.79-63.2324-324.51-67.6753-363.38-53.67452-373.03-52.0651012c-6.72 1.1202712-46.41 3.6107712-79.73 5.7020212-14.55.91313-27.89 1.75013-36.74 2.36369-29.12 2.01879-112.62 22.03889-136.04 27.74159-23.42 5.7028-109.69 41.1566-109.69 41.1566s-32.21 11.7963-52.76 14.522c-20.55 2.7165-47.55 9.7315-47.55 9.7315l-2.45.902c-1.05.386-2.1.768-17.23 6.317-8.68 3.176-16.77 6.592-23.14 9.286-6.78 2.862-10.11 4.126-13.19 4.985-3.08.858 6.92-1.986-.04.001-6.96 1.988-15.22.746-32.28-.662-17.13-1.414-101.72-10.792-122.59-13.722-18.66-2.612-48.2.294-72 2.635-2.82.277-5.56.546-8.19.798-24.83 2.372-85.45 17.852-101.01 22.597-9.98 3.043-41.06 9.466-66.03 14.626-13.96 2.885-26.01 5.375-31.4 6.659-15.02 3.582-97.27 24.104-97.27 24.104l-24.13 4.038c-4.6.769-9.99 1.619-15.91 2.552-25.12 3.962-59.74 9.42-83.48 16.566-29.33 8.828-97.92 12.81-103.99 13.117s-90.38 6.205-90.38 6.205-102.91 10.782-104.7 11.443c-1.79.66-46.63 4.595-52.7 4.893-166.37 8.414-291.537-67.09-449.32-104.203z" fill="#eaebea"/></svg>

<svg width="3025" height="853" viewBox="0 0 3025 853" fill="none" xmlns="http://www.w3.org/2000/svg">
    <path d="M355.28 134.393C162.31 89.0034 -0.591714 119.794 -0.591714 119.794L-0.786413 803.411C60.2073 806.78 363.25 659.457 598.111 650.455C747.205 644.74 904.426 658.191 1046.09 706.782C1072.61 715.872 1188.63 760.791 1214.96 773.169C1228.7 779.616 1286.33 791.292 1341.17 802.401C1391.45 812.587 1439.38 822.297 1448.96 827.062C1484.61 844.772 1508.9 844.584 1561.27 844.179C1592.12 843.941 1632.7 843.627 1691.08 846.849C1694.56 847.04 1699.12 847.512 1704.94 848.113C1737.44 851.469 1809.23 858.881 1951.09 844.316C2014.68 837.786 2175.84 818.062 2265.25 765.4C2412.1 678.9 2811.5 858.208 3027.19 802.947L3026.76 119.779C3026.76 119.779 2729.97 56.5466 2702.25 52.1037C2674.53 47.6608 2338.87 -1.57082 2329.22 0.0385988C2322.5 1.15887 2282.81 3.64937 2249.49 5.74062C2234.94 6.65375 2221.6 7.49075 2212.75 8.10431C2183.63 10.1231 2100.13 30.1432 2076.71 35.8459C2053.29 41.5487 1967.02 77.0025 1967.02 77.0025C1967.02 77.0025 1934.81 88.7988 1914.26 91.5245C1893.71 94.241 1866.71 101.256 1866.71 101.256L1864.26 102.158C1863.21 102.544 1862.16 102.926 1847.03 108.475C1838.35 111.651 1830.26 115.067 1823.89 117.761C1817.11 120.623 1813.78 121.887 1810.7 122.746C1807.62 123.604 1817.62 120.76 1810.66 122.747C1803.7 124.735 1795.44 123.493 1778.38 122.085C1761.25 120.671 1676.66 111.293 1655.79 108.363C1637.13 105.751 1607.59 108.657 1583.79 110.998C1580.97 111.275 1578.23 111.544 1575.6 111.796C1550.77 114.168 1490.15 129.648 1474.59 134.393C1464.61 137.436 1433.53 143.859 1408.56 149.019C1394.6 151.904 1382.55 154.394 1377.16 155.678C1362.14 159.26 1279.89 179.782 1279.89 179.782L1255.76 183.82C1251.16 184.589 1245.77 185.439 1239.85 186.372C1214.73 190.334 1180.11 195.792 1156.37 202.938C1127.04 211.766 1058.45 215.748 1052.38 216.055C1046.31 216.362 962 222.26 962 222.26C962 222.26 859.09 233.042 857.3 233.703C855.51 234.363 810.67 238.298 804.6 238.596C638.23 247.01 513.063 171.506 355.28 134.393Z" fill="#EAEBEA"/>
</svg>
